!!!OTL: Die Brombeeren (29a),
!!!id: T0153
**kern
*clefG2
*k[f#]
*G:
{8d
=1
8g
16g
16g
16f#
16f#
16f#
16f#
=2
8e
16e
16e
8d}
=3
{8d
=4
8g
8g
8f#
8a
=5
4g
8r
16g
16a
=6
8b
8b
8b
8dd
=7
8dd
16cc
16b
8a}
8r
=8
{8d
8a
8cc
16ee
16ee
=9
8ee
16dd
16cc
8b}
=10
{16dd
16ee
=11
8dd
8dd
8cc
8f#
=12
4g}
8r
==
*-
!!!minrhy: 16
!!!meters: 2/4 ]  ZZ[4
!!!cut1: Die Brombeeren (29a),
!!!cut2: Melodie II, S. 111
!!!reg: Luxemburg
!!!trd: Singendes Volk, Esch-Alzette 1937 posth.
!!!rhy1: X_  X_XXXXXX  X_XXX_
!!!rhy2: X_  X_X_X_X_  X__0_XX  X_X_X_X_  X_XXX_0_
!!!key: T0153  16  G 2/4 ]  ZZ[4
!!!mod: HEPTATONIK IONISCH]  AMBITUS[9
!!!kad: -5231
!!!akz: 1-6_1135_-56_51_
!!!fot: 'a__b__c__d__
!!!for: 'a__b__c__bw_
!!!fok: '^__Ma_^a_\__
!! PHRAS[VORWIEGEND AUFTAKTIG]
!!!fkt: Liebeslieder
!!!bem: Luxemburg, hhh Lorang Aschenberger, 1928
!! THILL, Mathias:
!! PR[34] 2K[4] 2G[9] 3K[13] 3G[3] 4A[3] 4Ü[0] 5A[3] 6K[0] 6G[0]
!! 7K[0] 7G[0] 8A[0] MEHR[0] SI[36] ABS[67] SR[13] SP[22]
!! ST[16] 2k[4] 2g[12] 3k[4] 3g[0] 4d[1] 4ü[1] 5d[3] 6k[3] 6g[0]
!! 7k[0] 7g[0] 8d[0] mehr[0] si[30] dm[+6] sr[16] sp[13]
!! 1F[37] 2F[59] 3F[4] 4F[0] LF[0] 2P[0] 3P[0] 4P[0] TRI[0] DF[3] AB[75]
!! TF[0] U3K[0] U3[0] U4[0] U4Ü[0] U5[7] U6K[0] U6[7] U7K[0] U7[9]
!! N1[12] N2K[0] N2[10] N3K[0] N3[21] N4[10] N4Ü[0] N5[18] N6K[0] N6[6]
!!!n7k: 0] N7[0] O1[0] O2K[0] O2[0] O3K[0] O3[0] HÖ[0
